public/images/home/filter.svg

<svg width="20" height="20" viewBox="0 0 20 20" fill="none" xmlns="http://www.w3.org/2000/svg">
<path d="M9.9987 4.99967V3.33301M9.9987 4.99967C9.55667 4.99967 9.13275 5.17527 8.82019 5.48783C8.50763 5.80039 8.33203 6.22431 8.33203 6.66634C8.33203 7.10837 8.50763 7.53229 8.82019 7.84485C9.13275 8.15741 9.55667 8.33301 9.9987 8.33301M9.9987 4.99967C10.4407 4.99967 10.8646 5.17527 11.1772 5.48783C11.4898 5.80039 11.6654 6.22431 11.6654 6.66634C11.6654 7.10837 11.4898 7.53229 11.1772 7.84485C10.8646 8.15741 10.4407 8.33301 9.9987 8.33301M9.9987 8.33301V16.6663M4.9987 14.9997C5.44073 14.9997 5.86465 14.8241 6.17721 14.5115C6.48977 14.199 6.66536 13.775 6.66536 13.333C6.66536 12.891 6.48977 12.4671 6.17721 12.1545C5.86465 11.8419 5.44073 11.6663 4.9987 11.6663M4.9987 14.9997C4.55667 14.9997 4.13275 14.8241 3.82019 14.5115C3.50763 14.199 3.33203 13.775 3.33203 13.333C3.33203 12.891 3.50763 12.4671 3.82019 12.1545C4.13275 11.8419 4.55667 11.6663 4.9987 11.6663M4.9987 14.9997V16.6663M4.9987 11.6663V3.33301M14.9987 14.9997C15.4407 14.9997 15.8646 14.8241 16.1772 14.5115C16.4898 14.199 16.6654 13.775 16.6654 13.333C16.6654 12.891 16.4898 12.4671 16.1772 12.1545C15.8646 11.8419 15.4407 11.6663 14.9987 11.6663M14.9987 14.9997C14.5567 14.9997 14.1327 14.8241 13.8202 14.5115C13.5076 14.199 13.332 13.775 13.332 13.333C13.332 12.891 13.5076 12.4671 13.8202 12.1545C14.1327 11.8419 14.5567 11.6663 14.9987 11.6663M14.9987 14.9997V16.6663M14.9987 11.6663V3.33301" stroke="#000B19" stroke-width="1.5" stroke-linecap="round" stroke-linejoin="round"/>
</svg>

<svg xmlns="http://www.w3.org/2000/svg" width="20" height="20" fill="none" xmlns:v="https://vecta.io/nano"><path d="M9.999 5V3.333m0 1.667a1.667 1.667 0 0 0 0 3.333m0-3.333a1.667 1.667 0 0 1 0 3.333m0 0v8.333m-5-1.666a1.667 1.667 0 1 0 0-3.334m0 3.334a1.667 1.667 0 1 1 0-3.334m0 3.334v1.666m0-5V3.333m10 11.667a1.667 1.667 0 0 0 0-3.334m0 3.334a1.666 1.666 0 1 1 0-3.334m0 3.334v1.666m0-5V3.333" stroke="#000b19" stroke-width="1.5" stroke-linecap="round" stroke-linejoin="round"/></svg>
